src/assets/images/reactions/women/small/love.svg

<svg width="15" height="15" viewBox="0 0 15 15" fill="none" xmlns="http://www.w3.org/2000/svg">
<path fill-rule="evenodd" clip-rule="evenodd" d="M3.92693 1.00874C3.17047 1.10403 2.55496 1.31659 1.99855 1.67469C1.13585 2.22989 0.516144 3.02846 0.207859 3.98217C-0.346761 5.69813 0.202433 7.4688 1.92859 9.52982C2.26187 9.92774 3.36486 11.0287 3.83893 11.4366C4.66978 12.1514 5.58052 12.8378 6.52248 13.4591C7.37826 14.0235 7.47394 14.0624 7.72549 13.9483C7.91712 13.8613 9.05672 13.0953 9.64191 12.6602C10.7 11.8734 11.4542 11.2246 12.2721 10.3977C13.8314 8.82115 14.6784 7.43702 14.945 6.02986C15.0185 5.64164 15.0183 4.89233 14.9446 4.52055C14.5955 2.75869 13.2952 1.45214 11.5124 1.07188C11.1168 0.987504 10.2953 0.981056 9.89716 1.05925C9.08902 1.21795 8.38609 1.56234 7.76228 2.10523L7.50573 2.3285L7.23429 2.09419C7.08499 1.96532 6.87227 1.7997 6.76157 1.72613C6.29055 1.41316 5.66028 1.15963 5.10977 1.06166C4.85422 1.0162 4.1263 0.983612 3.92693 1.00874Z" fill="#EB3E7D"/>
</svg>

<svg xmlns="http://www.w3.org/2000/svg" width="15" height="15" fill="none">
  <path fill="#EB3E7D" fill-rule="evenodd" d="M3.927 1.009c-.757.095-1.372.308-1.928.666A4.295 4.295 0 0 0 .208 3.982C-.347 5.698.202 7.47 1.928 9.53c.334.398 1.437 1.499 1.91 1.907.832.714 1.743 1.4 2.684 2.022.856.565.952.603 1.203.49.192-.088 1.332-.854 1.917-1.289 1.058-.787 1.812-1.435 2.63-2.262 1.56-1.577 2.406-2.961 2.673-4.368.073-.388.073-1.138 0-1.51-.35-1.761-1.65-3.068-3.433-3.448-.395-.084-1.217-.09-1.615-.013a4.501 4.501 0 0 0-2.135 1.046l-.256.224-.272-.235a5.97 5.97 0 0 0-.472-.368 4.654 4.654 0 0 0-1.652-.664c-.256-.046-.984-.078-1.183-.053Z" clip-rule="evenodd"/>
</svg>
